X:4
T:No.14 McFarley's Reel
C:reel
M:4/4
L:1/8
K:D
(3ABc|dD (3DDD (3FED B,D|A,DFA BAFA|dDcD BDAD|
(3FED FA BAFA|dD (3DDD (3FED B, D|A,DFA BAFA|
(3Bcd ec dBAG|[1FDEF D3:|[2EDEF D2 ag||
fgab afdg|fdad bdad|efga ge=ce|e=cgc acgc|
fgaf bfaf|gfeg fdBc|defd ecdB|AFEF D2 ag:|
